X: 242
T: Smile the While
T: 'Til we meet again
M:3/4
R:waltz
L:1/8
Z:added by Alf warnock alf0@rogers.com
K:D
A3/2B1/2 c3/2d1/2 e3/2=f|:"D"^f4 d2| A4 f2| "A7"e3^d e=d|c6|
e4 c2| A4 g2| "D"f3=f ^fe|d6| "G"d4 c2| B4 d2| "D"A4 d2|"B7" f6|
"E7"f4 e2| d4 B2| "A7"c4 d2| e4 "Fdim"=f2|"D"f4 d2| A4 f2|
 "A7"e3^d e=d|c6|e4 c2| A4 g2| "D"f3=f ^fe|d6|
"G"d4 c2| B4 d2| "D"A4 d2|"B7" f6|"E7"e4 B2| "Em7"d4 "A7"c2|
[1 "D" d6| "A7"A3/2B1/2 c3/2d1/2 e3/2=f|]|[2((3dcd)(A2F2)|H[D6A6]|]
